X:278
T:Glasgow City Police Pipers, The 
C:Joe Buchanan's Scottish Tome - Page 321.1
I:321 1
C:PM. Donald McLeod MBE.
R:Jig
Z:Carl Allison
L:1/8
M:6/8
K:A
"A"AA(A c>a)c |"Bm" BBB ca>a |"A" AAA (c>a)c |"Bm" Baa "E7"f>ec |"A" AA(A c>a)c |"Bm"B>BB c>aa |("A"a2 e) "F#m"fec |"Bm"B>BB "E7"c>aa :|
"A"f>aa e>aa |"A" c>aa A>aa |"D" f>aa "A"e>aa |"A"c>aa "E7"B>aa |"A"c>aa A>aa |("A"a2 e) "F#m"fec |"Bm"B>BB "A"c>aa :|
"A"AA(A c>a)c |"Bm" BBB ca>a |"A" AAA (c>a)c |"Bm" Baa "E7"f>ec |"A" AA(A c>a)c |"Bm"B>BB c>aa |("A"a2 e) "F#m"fec |"Bm"B>BB "E7"c>aa :|
"A"f>aa e>aa |"A" c>aa A>aa |"D" f>aa "A"e>aa |"A"c>aa "E7"B>aa |"A"c>aa A>aa |("A"a2 e) "F#m"fec |"Bm"B>BB "A"c>aa :|

